X: 25843
T: Master Seamus
R: reel
M: 4/4
K: Gmajor
B,C|DB,~B,2 DGBG|EC ~C2 EGcG|FD ~D2 FAd^c|ed^cd BGEG|
DB,~B,2 DGBG|EC ~C2 EGcG|FADF cABA|1 (3GAG FA GD:|2 (3GAG FA GABc||
dg{a}gf gdBd|ec{d}cB ceag|fd{e}d^c dfc'b|agfe dcBc|(3ded Bd gdBd|
[1 cc{d}cB cBAG|FADF AcAF|(3GAG FA GABc:|
[2 c2 (3BcB ABGA|Ec{d}cB cBAG|FDCA, G,2||

